images/3247285.svg

<?xml version="1.0" encoding="UTF-8"?>
<svg xmlns="http://www.w3.org/2000/svg" xmlns:xlink="http://www.w3.org/1999/xlink" width="300pt" height="300pt" viewBox="0 0 300 300" version="1.1">
<defs>
<g>
<symbol overflow="visible" id="glyph0-0">
<path style="stroke:none;" d="M 0.453125 1.59375 L 0.453125 -6.34375 L 4.953125 -6.34375 L 4.953125 1.59375 Z M 0.953125 1.09375 L 4.453125 1.09375 L 4.453125 -5.84375 L 0.953125 -5.84375 Z M 0.953125 1.09375 "/>
</symbol>
<symbol overflow="visible" id="glyph0-1">
<path style="stroke:none;" d="M 0.890625 -6.5625 L 2.078125 -6.5625 L 4.984375 -1.078125 L 4.984375 -6.5625 L 5.84375 -6.5625 L 5.84375 0 L 4.65625 0 L 1.75 -5.484375 L 1.75 0 L 0.890625 0 Z M 0.890625 -6.5625 "/>
</symbol>
<symbol overflow="visible" id="glyph0-2">
<path style="stroke:none;" d="M 0.890625 -6.5625 L 1.765625 -6.5625 L 1.765625 -3.875 L 5 -3.875 L 5 -6.5625 L 5.890625 -6.5625 L 5.890625 0 L 5 0 L 5 -3.125 L 1.765625 -3.125 L 1.765625 0 L 0.890625 0 Z M 0.890625 -6.5625 "/>
</symbol>
<symbol overflow="visible" id="glyph0-3">
<path style="stroke:none;" d="M 3.546875 -5.953125 C 2.898438 -5.953125 2.382812 -5.710938 2 -5.234375 C 1.625 -4.753906 1.4375 -4.101562 1.4375 -3.28125 C 1.4375 -2.445312 1.625 -1.789062 2 -1.3125 C 2.382812 -0.832031 2.898438 -0.59375 3.546875 -0.59375 C 4.191406 -0.59375 4.703125 -0.832031 5.078125 -1.3125 C 5.453125 -1.789062 5.640625 -2.445312 5.640625 -3.28125 C 5.640625 -4.101562 5.453125 -4.753906 5.078125 -5.234375 C 4.703125 -5.710938 4.191406 -5.953125 3.546875 -5.953125 Z M 3.546875 -6.6875 C 4.460938 -6.6875 5.195312 -6.375 5.75 -5.75 C 6.300781 -5.132812 6.578125 -4.3125 6.578125 -3.28125 C 6.578125 -2.238281 6.300781 -1.410156 5.75 -0.796875 C 5.195312 -0.179688 4.460938 0.125 3.546875 0.125 C 2.617188 0.125 1.878906 -0.179688 1.328125 -0.796875 C 0.773438 -1.410156 0.5 -2.238281 0.5 -3.28125 C 0.5 -4.3125 0.773438 -5.132812 1.328125 -5.75 C 1.878906 -6.375 2.617188 -6.6875 3.546875 -6.6875 Z M 3.546875 -6.6875 "/>
</symbol>
</g>
</defs>
<g id="surface44985">
<rect x="0" y="0" width="300" height="300" style="fill:rgb(100%,100%,100%);fill-opacity:1;stroke:none;"/>
<path style="fill:none;stroke-width:1.2;stroke-linecap:butt;stroke-linejoin:miter;stroke:rgb(0%,0%,0%);stroke-opacity:1;stroke-miterlimit:10;" d="M 53.726562 207.75 L 61.011719 191.960938 "/>
<path style="fill:none;stroke-width:1.2;stroke-linecap:butt;stroke-linejoin:miter;stroke:rgb(0%,0%,0%);stroke-opacity:1;stroke-miterlimit:10;" d="M 61.011719 191.960938 L 78.066406 188.574219 "/>
<path style="fill:none;stroke-width:1.2;stroke-linecap:butt;stroke-linejoin:miter;stroke:rgb(0%,0%,0%);stroke-opacity:1;stroke-miterlimit:10;" d="M 61.917969 187.609375 L 75.5625 184.898438 "/>
<path style="fill:none;stroke-width:1.2;stroke-linecap:butt;stroke-linejoin:miter;stroke:rgb(0%,0%,100%);stroke-opacity:1;stroke-miterlimit:10;" d="M 52.515625 176.789062 L 56.761719 184.375 "/>
<path style="fill:none;stroke-width:1.2;stroke-linecap:butt;stroke-linejoin:miter;stroke:rgb(0%,0%,0%);stroke-opacity:1;stroke-miterlimit:10;" d="M 56.761719 184.375 L 61.011719 191.960938 "/>
<path style="fill:none;stroke-width:1.2;stroke-linecap:butt;stroke-linejoin:miter;stroke:rgb(0%,0%,0%);stroke-opacity:1;stroke-miterlimit:10;" d="M 78.066406 188.574219 L 80.113281 171.304688 "/>
<path style="fill:none;stroke-width:1.2;stroke-linecap:butt;stroke-linejoin:miter;stroke:rgb(0%,0%,0%);stroke-opacity:1;stroke-miterlimit:10;" d="M 80.113281 171.304688 L 72.21875 167.664062 "/>
<path style="fill:none;stroke-width:1.2;stroke-linecap:butt;stroke-linejoin:miter;stroke:rgb(0%,0%,100%);stroke-opacity:1;stroke-miterlimit:10;" d="M 72.21875 167.664062 L 64.324219 164.023438 "/>
<path style="fill:none;stroke-width:1.2;stroke-linecap:butt;stroke-linejoin:miter;stroke:rgb(0%,0%,0%);stroke-opacity:1;stroke-miterlimit:10;" d="M 76.820312 174.292969 L 70.503906 171.378906 "/>
<path style="fill:none;stroke-width:1.2;stroke-linecap:butt;stroke-linejoin:miter;stroke:rgb(0%,0%,100%);stroke-opacity:1;stroke-miterlimit:10;" d="M 70.503906 171.378906 L 64.1875 168.464844 "/>
<path style="fill:none;stroke-width:1.2;stroke-linecap:butt;stroke-linejoin:miter;stroke:rgb(0%,0%,0%);stroke-opacity:1;stroke-miterlimit:10;" d="M 80.113281 171.304688 L 95.285156 162.8125 "/>
<path style="fill:none;stroke-width:1.2;stroke-linecap:butt;stroke-linejoin:miter;stroke:rgb(0%,0%,100%);stroke-opacity:1;stroke-miterlimit:10;" d="M 64.324219 164.023438 L 52.515625 176.789062 "/>
<path style=" stroke:none;fill-rule:nonzero;fill:rgb(100%,100%,100%);fill-opacity:1;" d="M 61.324219 158.523438 L 68.324219 158.523438 L 68.324219 169.523438 L 61.324219 169.523438 Z M 61.324219 158.523438 "/>
<g style="fill:rgb(0%,0%,100%);fill-opacity:1;">
  <use xlink:href="#glyph0-1" x="61.324219" y="167.186523"/>
</g>
<path style="fill:none;stroke-width:1.2;stroke-linecap:butt;stroke-linejoin:miter;stroke:rgb(0%,0%,100%);stroke-opacity:1;stroke-miterlimit:10;" d="M 52.515625 176.789062 L 43.882812 175.765625 "/>
<path style="fill:none;stroke-width:1.2;stroke-linecap:butt;stroke-linejoin:miter;stroke:rgb(0%,0%,0%);stroke-opacity:1;stroke-miterlimit:10;" d="M 43.882812 175.765625 L 35.25 174.742188 "/>
<path style=" stroke:none;fill-rule:nonzero;fill:rgb(100%,100%,100%);fill-opacity:1;" d="M 49.515625 171.289062 L 56.515625 171.289062 L 56.515625 182.289062 L 49.515625 182.289062 Z M 49.515625 171.289062 "/>
<g style="fill:rgb(0%,0%,100%);fill-opacity:1;">
  <use xlink:href="#glyph0-1" x="49.515625" y="179.952148"/>
</g>
<path style="fill:none;stroke-width:1.2;stroke-linecap:butt;stroke-linejoin:miter;stroke:rgb(0%,0%,0%);stroke-opacity:1;stroke-miterlimit:10;" d="M 95.285156 162.8125 L 102.753906 167.257812 "/>
<path style="fill:none;stroke-width:1.2;stroke-linecap:butt;stroke-linejoin:miter;stroke:rgb(0%,0%,100%);stroke-opacity:1;stroke-miterlimit:10;" d="M 102.753906 167.257812 L 110.226562 171.707031 "/>
<path style="fill:none;stroke-width:1.2;stroke-linecap:butt;stroke-linejoin:miter;stroke:rgb(0%,0%,100%);stroke-opacity:1;stroke-miterlimit:10;" d="M 110.226562 171.707031 L 117.8125 167.460938 "/>
<path style="fill:none;stroke-width:1.2;stroke-linecap:butt;stroke-linejoin:miter;stroke:rgb(0%,0%,0%);stroke-opacity:1;stroke-miterlimit:10;" d="M 117.8125 167.460938 L 125.398438 163.214844 "/>
<path style=" stroke:none;fill-rule:nonzero;fill:rgb(100%,100%,100%);fill-opacity:1;" d="M 103.226562 166.207031 L 117.226562 166.207031 L 117.226562 177.207031 L 103.226562 177.207031 Z M 103.226562 166.207031 "/>
<g style="fill:rgb(0%,0%,100%);fill-opacity:1;">
  <use xlink:href="#glyph0-1" x="103.226562" y="174.870117"/>
  <use xlink:href="#glyph0-2" x="110.204102" y="174.870117"/>
</g>
<path style="fill:none;stroke-width:1.2;stroke-linecap:butt;stroke-linejoin:miter;stroke:rgb(0%,0%,0%);stroke-opacity:1;stroke-miterlimit:10;" d="M 127.445312 163.238281 L 127.558594 154.546875 "/>
<path style="fill:none;stroke-width:1.2;stroke-linecap:butt;stroke-linejoin:miter;stroke:rgb(100%,0%,0%);stroke-opacity:1;stroke-miterlimit:10;" d="M 127.558594 154.546875 L 127.675781 145.855469 "/>
<path style="fill:none;stroke-width:1.2;stroke-linecap:butt;stroke-linejoin:miter;stroke:rgb(0%,0%,0%);stroke-opacity:1;stroke-miterlimit:10;" d="M 123.351562 163.1875 L 123.46875 154.492188 "/>
<path style="fill:none;stroke-width:1.2;stroke-linecap:butt;stroke-linejoin:miter;stroke:rgb(100%,0%,0%);stroke-opacity:1;stroke-miterlimit:10;" d="M 123.46875 154.492188 L 123.582031 145.800781 "/>
<path style=" stroke:none;fill-rule:nonzero;fill:rgb(0%,0%,0%);fill-opacity:1;" d="M 140.339844 172.105469 L 126.96875 160.578125 L 123.828125 165.851562 Z M 140.339844 172.105469 "/>
<path style=" stroke:none;fill-rule:nonzero;fill:rgb(100%,100%,100%);fill-opacity:1;" d="M 121.628906 140.328125 L 129.628906 140.328125 L 129.628906 151.328125 L 121.628906 151.328125 Z M 121.628906 140.328125 "/>
<g style="fill:rgb(100%,0%,0%);fill-opacity:1;">
  <use xlink:href="#glyph0-3" x="121.628906" y="148.991211"/>
</g>
<path style="fill:none;stroke-width:1.2;stroke-linecap:butt;stroke-linejoin:miter;stroke:rgb(0%,0%,0%);stroke-opacity:1;stroke-miterlimit:10;" d="M 140.339844 172.105469 L 140.109375 189.492188 "/>
<path style="fill:none;stroke-width:1.2;stroke-linecap:butt;stroke-linejoin:miter;stroke:rgb(0%,0%,0%);stroke-opacity:1;stroke-miterlimit:10;" d="M 140.339844 172.105469 L 155.511719 163.613281 "/>
<path style="fill:none;stroke-width:1;stroke-linecap:butt;stroke-linejoin:miter;stroke:rgb(0%,0%,0%);stroke-opacity:1;stroke-miterlimit:10;" d="M 155.511719 163.613281 L 155.511719 163.613281 M 158.460938 164.171875 L 158.472656 163.132812 M 161.40625 164.734375 L 161.433594 162.648438 M 164.355469 165.292969 L 164.394531 162.167969 M 167.300781 165.855469 L 167.355469 161.683594 M 170.25 166.414062 L 170.316406 161.203125 M 172.859375 166.914062 L 172.9375 160.777344 "/>
<path style="fill:none;stroke-width:1.2;stroke-linecap:butt;stroke-linejoin:miter;stroke:rgb(0%,0%,0%);stroke-opacity:1;stroke-miterlimit:10;" d="M 164.40625 148.671875 L 155.511719 163.613281 "/>
<path style="fill:none;stroke-width:1.2;stroke-linecap:butt;stroke-linejoin:miter;stroke:rgb(0%,0%,0%);stroke-opacity:1;stroke-miterlimit:10;" d="M 172.898438 163.84375 L 164.40625 148.671875 "/>
<path style="fill:none;stroke-width:1;stroke-linecap:butt;stroke-linejoin:miter;stroke:rgb(0%,0%,0%);stroke-opacity:1;stroke-miterlimit:10;" d="M 164.40625 148.671875 L 164.40625 148.671875 M 162.507812 146.347656 L 161.828125 147.136719 M 160.609375 144.023438 L 159.25 145.605469 M 158.714844 141.699219 L 156.671875 144.070312 M 156.816406 139.375 L 154.09375 142.535156 M 154.917969 137.050781 L 151.515625 141 M 153.238281 134.996094 L 149.230469 139.644531 "/>
<path style="fill:none;stroke-width:1.2;stroke-linecap:butt;stroke-linejoin:miter;stroke:rgb(0%,0%,0%);stroke-opacity:1;stroke-miterlimit:10;" d="M 164.40625 148.671875 L 177.871094 137.671875 "/>
<path style=" stroke:none;fill-rule:nonzero;fill:rgb(0%,0%,0%);fill-opacity:1;" d="M 177.871094 137.671875 L 178.109375 120.019531 L 172.050781 121.003906 Z M 177.871094 137.671875 "/>
<path style="fill:none;stroke-width:1.2;stroke-linecap:butt;stroke-linejoin:miter;stroke:rgb(0%,0%,0%);stroke-opacity:1;stroke-miterlimit:10;" d="M 177.871094 137.671875 L 186.003906 140.753906 "/>
<path style="fill:none;stroke-width:1.2;stroke-linecap:butt;stroke-linejoin:miter;stroke:rgb(0%,0%,100%);stroke-opacity:1;stroke-miterlimit:10;" d="M 186.003906 140.753906 L 194.132812 143.835938 "/>
<path style="fill:none;stroke-width:1.2;stroke-linecap:butt;stroke-linejoin:miter;stroke:rgb(0%,0%,0%);stroke-opacity:1;stroke-miterlimit:10;" d="M 175.082031 120.511719 L 188.546875 109.511719 "/>
<path style="fill:none;stroke-width:1.2;stroke-linecap:butt;stroke-linejoin:miter;stroke:rgb(0%,0%,0%);stroke-opacity:1;stroke-miterlimit:10;" d="M 173.839844 116.242188 L 184.613281 107.441406 "/>
<path style="fill:none;stroke-width:1.2;stroke-linecap:butt;stroke-linejoin:miter;stroke:rgb(0%,0%,0%);stroke-opacity:1;stroke-miterlimit:10;" d="M 158.824219 114.347656 L 175.082031 120.511719 "/>
<path style="fill:none;stroke-width:1.2;stroke-linecap:butt;stroke-linejoin:miter;stroke:rgb(0%,0%,0%);stroke-opacity:1;stroke-miterlimit:10;" d="M 188.546875 109.511719 L 185.757812 92.347656 "/>
<path style="fill:none;stroke-width:1.2;stroke-linecap:butt;stroke-linejoin:miter;stroke:rgb(0%,0%,0%);stroke-opacity:1;stroke-miterlimit:10;" d="M 185.757812 92.347656 L 169.496094 86.1875 "/>
<path style="fill:none;stroke-width:1.2;stroke-linecap:butt;stroke-linejoin:miter;stroke:rgb(0%,0%,0%);stroke-opacity:1;stroke-miterlimit:10;" d="M 182.679688 95.558594 L 169.671875 90.628906 "/>
<path style="fill:none;stroke-width:1.2;stroke-linecap:butt;stroke-linejoin:miter;stroke:rgb(0%,0%,0%);stroke-opacity:1;stroke-miterlimit:10;" d="M 169.496094 86.1875 L 156.03125 97.183594 "/>
<path style="fill:none;stroke-width:1.2;stroke-linecap:butt;stroke-linejoin:miter;stroke:rgb(0%,0%,0%);stroke-opacity:1;stroke-miterlimit:10;" d="M 156.03125 97.183594 L 158.824219 114.347656 "/>
<path style="fill:none;stroke-width:1.2;stroke-linecap:butt;stroke-linejoin:miter;stroke:rgb(0%,0%,0%);stroke-opacity:1;stroke-miterlimit:10;" d="M 160.347656 98.242188 L 162.582031 111.972656 "/>
<path style="fill:none;stroke-width:1.2;stroke-linecap:butt;stroke-linejoin:miter;stroke:rgb(0%,0%,100%);stroke-opacity:1;stroke-miterlimit:10;" d="M 194.132812 143.835938 L 195.527344 152.417969 "/>
<path style="fill:none;stroke-width:1.2;stroke-linecap:butt;stroke-linejoin:miter;stroke:rgb(0%,0%,0%);stroke-opacity:1;stroke-miterlimit:10;" d="M 195.527344 152.417969 L 196.921875 161 "/>
<path style=" stroke:none;fill-rule:nonzero;fill:rgb(100%,100%,100%);fill-opacity:1;" d="M 187.132812 138.335938 L 201.132812 138.335938 L 201.132812 149.335938 L 187.132812 149.335938 Z M 187.132812 138.335938 "/>
<g style="fill:rgb(0%,0%,100%);fill-opacity:1;">
  <use xlink:href="#glyph0-1" x="187.132812" y="146.999023"/>
  <use xlink:href="#glyph0-2" x="194.110352" y="146.999023"/>
</g>
<path style="fill:none;stroke-width:1.2;stroke-linecap:butt;stroke-linejoin:miter;stroke:rgb(0%,0%,0%);stroke-opacity:1;stroke-miterlimit:10;" d="M 195.628906 159.414062 L 188.894531 164.914062 "/>
<path style="fill:none;stroke-width:1.2;stroke-linecap:butt;stroke-linejoin:miter;stroke:rgb(100%,0%,0%);stroke-opacity:1;stroke-miterlimit:10;" d="M 188.894531 164.914062 L 182.160156 170.414062 "/>
<path style="fill:none;stroke-width:1.2;stroke-linecap:butt;stroke-linejoin:miter;stroke:rgb(0%,0%,0%);stroke-opacity:1;stroke-miterlimit:10;" d="M 198.21875 162.582031 L 191.484375 168.082031 "/>
<path style="fill:none;stroke-width:1.2;stroke-linecap:butt;stroke-linejoin:miter;stroke:rgb(100%,0%,0%);stroke-opacity:1;stroke-miterlimit:10;" d="M 191.484375 168.082031 L 184.75 173.582031 "/>
<path style="fill:none;stroke-width:1.2;stroke-linecap:butt;stroke-linejoin:miter;stroke:rgb(0%,0%,0%);stroke-opacity:1;stroke-miterlimit:10;" d="M 196.921875 161 L 205.050781 164.082031 "/>
<path style="fill:none;stroke-width:1.2;stroke-linecap:butt;stroke-linejoin:miter;stroke:rgb(100%,0%,0%);stroke-opacity:1;stroke-miterlimit:10;" d="M 205.050781 164.082031 L 213.183594 167.164062 "/>
<path style=" stroke:none;fill-rule:nonzero;fill:rgb(100%,100%,100%);fill-opacity:1;" d="M 175.457031 166.496094 L 183.457031 166.496094 L 183.457031 177.496094 L 175.457031 177.496094 Z M 175.457031 166.496094 "/>
<g style="fill:rgb(100%,0%,0%);fill-opacity:1;">
  <use xlink:href="#glyph0-3" x="175.457031" y="175.15918"/>
</g>
<path style="fill:none;stroke-width:1.2;stroke-linecap:butt;stroke-linejoin:miter;stroke:rgb(100%,0%,0%);stroke-opacity:1;stroke-miterlimit:10;" d="M 213.183594 167.164062 L 214.578125 175.742188 "/>
<path style="fill:none;stroke-width:1.2;stroke-linecap:butt;stroke-linejoin:miter;stroke:rgb(0%,0%,0%);stroke-opacity:1;stroke-miterlimit:10;" d="M 214.578125 175.742188 L 215.972656 184.324219 "/>
<path style=" stroke:none;fill-rule:nonzero;fill:rgb(100%,100%,100%);fill-opacity:1;" d="M 209.183594 161.664062 L 217.183594 161.664062 L 217.183594 172.664062 L 209.183594 172.664062 Z M 209.183594 161.664062 "/>
<g style="fill:rgb(100%,0%,0%);fill-opacity:1;">
  <use xlink:href="#glyph0-3" x="209.183594" y="170.327148"/>
</g>
<path style="fill:none;stroke-width:1.2;stroke-linecap:butt;stroke-linejoin:miter;stroke:rgb(0%,0%,0%);stroke-opacity:1;stroke-miterlimit:10;" d="M 215.972656 184.324219 L 232.230469 190.488281 "/>
<path style="fill:none;stroke-width:1.2;stroke-linecap:butt;stroke-linejoin:miter;stroke:rgb(0%,0%,0%);stroke-opacity:1;stroke-miterlimit:10;" d="M 232.230469 190.488281 L 235.023438 207.652344 "/>
<path style="fill:none;stroke-width:1.2;stroke-linecap:butt;stroke-linejoin:miter;stroke:rgb(0%,0%,0%);stroke-opacity:1;stroke-miterlimit:10;" d="M 236.550781 191.546875 L 238.78125 205.277344 "/>
<path style="fill:none;stroke-width:1.2;stroke-linecap:butt;stroke-linejoin:miter;stroke:rgb(0%,0%,0%);stroke-opacity:1;stroke-miterlimit:10;" d="M 245.699219 179.488281 L 232.230469 190.488281 "/>
<path style="fill:none;stroke-width:1.2;stroke-linecap:butt;stroke-linejoin:miter;stroke:rgb(0%,0%,0%);stroke-opacity:1;stroke-miterlimit:10;" d="M 235.023438 207.652344 L 251.28125 213.8125 "/>
<path style="fill:none;stroke-width:1.2;stroke-linecap:butt;stroke-linejoin:miter;stroke:rgb(0%,0%,0%);stroke-opacity:1;stroke-miterlimit:10;" d="M 251.28125 213.8125 L 264.75 202.816406 "/>
<path style="fill:none;stroke-width:1.2;stroke-linecap:butt;stroke-linejoin:miter;stroke:rgb(0%,0%,0%);stroke-opacity:1;stroke-miterlimit:10;" d="M 250.042969 209.546875 L 260.816406 200.746094 "/>
<path style="fill:none;stroke-width:1.2;stroke-linecap:butt;stroke-linejoin:miter;stroke:rgb(0%,0%,0%);stroke-opacity:1;stroke-miterlimit:10;" d="M 264.75 202.816406 L 261.957031 185.652344 "/>
<path style="fill:none;stroke-width:1.2;stroke-linecap:butt;stroke-linejoin:miter;stroke:rgb(0%,0%,0%);stroke-opacity:1;stroke-miterlimit:10;" d="M 261.957031 185.652344 L 245.699219 179.488281 "/>
<path style="fill:none;stroke-width:1.2;stroke-linecap:butt;stroke-linejoin:miter;stroke:rgb(0%,0%,0%);stroke-opacity:1;stroke-miterlimit:10;" d="M 258.882812 188.863281 L 245.875 183.929688 "/>
</g>
</svg>

<svg xmlns="http://www.w3.org/2000/svg" xmlns:xlink="http://www.w3.org/1999/xlink" width="300pt" height="300pt" viewBox="0 0 300 300"><defs><symbol overflow="visible"><path d="M.453 1.594v-7.938h4.5v7.938zm.5-.5h3.5v-6.938h-3.5zm0 0"/></symbol><symbol overflow="visible" id="a"><path d="M.89-6.563H2.08l2.906 5.485v-5.484h.86V0H4.656L1.75-5.484V0H.89zm0 0"/></symbol><symbol overflow="visible" id="b"><path d="M.89-6.563h.876v2.688H5v-2.688h.89V0H5v-3.125H1.766V0H.89zm0 0"/></symbol><symbol overflow="visible" id="c"><path d="M3.547-5.953c-.65 0-1.164.242-1.547.72-.375.48-.563 1.13-.563 1.952 0 .835.188 1.49.563 1.967.383.48.898.72 1.547.72.644 0 1.156-.24 1.53-.72.376-.476.564-1.132.564-1.968 0-.822-.187-1.474-.562-1.954-.375-.477-.887-.72-1.53-.72zm0-.734c.914 0 1.648.312 2.203.937.55.617.828 1.438.828 2.47 0 1.042-.277 1.87-.828 2.483-.555.617-1.29.922-2.203.922-.93 0-1.668-.305-2.22-.922C.774-1.41.5-2.237.5-3.28c0-1.033.273-1.853.828-2.47.55-.625 1.29-.938 2.22-.938zm0 0"/></symbol></defs><g><path fill="#fff" d="M0 0h300v300H0z"/><path d="M53.727 207.75l7.285-15.79M61.012 191.96l17.054-3.386M61.918 187.61l13.645-2.712" stroke-width="1.2" stroke="#000" stroke-miterlimit="10" fill="none"/><path d="M52.516 176.79l4.246 7.585" stroke-width="1.2" stroke="#00f" stroke-miterlimit="10" fill="none"/><path d="M56.762 184.375l4.25 7.586M78.066 188.574l2.047-17.27M80.113 171.305l-7.894-3.64" stroke-width="1.2" stroke="#000" stroke-miterlimit="10" fill="none"/><path d="M72.22 167.664l-7.896-3.64" stroke-width="1.2" stroke="#00f" stroke-miterlimit="10" fill="none"/><path d="M76.82 174.293l-6.316-2.914" stroke-width="1.2" stroke="#000" stroke-miterlimit="10" fill="none"/><path d="M70.504 171.38l-6.317-2.915" stroke-width="1.2" stroke="#00f" stroke-miterlimit="10" fill="none"/><path d="M80.113 171.305l15.172-8.493" stroke-width="1.2" stroke="#000" stroke-miterlimit="10" fill="none"/><path d="M64.324 164.023L52.516 176.79" stroke-width="1.2" stroke="#00f" stroke-miterlimit="10" fill="none"/><path d="M61.324 158.523h7v11h-7zm0 0" fill="#fff"/><use xlink:href="#a" x="61.324" y="167.187" fill="#00f"/><path d="M52.516 176.79l-8.633-1.024" stroke-width="1.2" stroke="#00f" stroke-miterlimit="10" fill="none"/><path d="M43.883 175.766l-8.633-1.024" stroke-width="1.2" stroke="#000" stroke-miterlimit="10" fill="none"/><path d="M49.516 171.29h7v11h-7zm0 0" fill="#fff"/><use xlink:href="#a" x="49.516" y="179.952" fill="#00f"/><path d="M95.285 162.813l7.47 4.445" stroke-width="1.2" stroke="#000" stroke-miterlimit="10" fill="none"/><path d="M102.754 167.258l7.473 4.45M110.227 171.707l7.585-4.246" stroke-width="1.2" stroke="#00f" stroke-miterlimit="10" fill="none"/><path d="M117.813 167.46l7.585-4.245" stroke-width="1.2" stroke="#000" stroke-miterlimit="10" fill="none"/><path d="M103.227 166.207h14v11h-14zm0 0" fill="#fff"/><g fill="#00f"><use xlink:href="#a" x="103.227" y="174.87"/><use xlink:href="#b" x="110.204" y="174.87"/></g><path d="M127.445 163.238l.114-8.69" stroke-width="1.2" stroke="#000" stroke-miterlimit="10" fill="none"/><path d="M127.56 154.547l.116-8.692" stroke-width="1.2" stroke="#f00" stroke-miterlimit="10" fill="none"/><path d="M123.352 163.188l.117-8.696" stroke-width="1.2" stroke="#000" stroke-miterlimit="10" fill="none"/><path d="M123.47 154.492l.112-8.69" stroke-width="1.2" stroke="#f00" stroke-miterlimit="10" fill="none"/><path d="M140.34 172.105l-13.37-11.527-3.142 5.274zm0 0"/><path d="M121.63 140.328h8v11h-8zm0 0" fill="#fff"/><use xlink:href="#c" x="121.629" y="148.991" fill="#f00"/><path d="M140.34 172.105l-.23 17.387M140.34 172.105l15.172-8.492" stroke-width="1.2" stroke="#000" stroke-miterlimit="10" fill="none"/><path d="M155.512 163.613m2.95.56l.01-1.04m2.934 1.6l.028-2.085m2.92 2.645l.04-3.125m2.907 3.687l.055-4.17m2.895 4.73l.066-5.212m2.543 5.71l.077-6.136" stroke="#000" stroke-miterlimit="10" fill="none"/><path d="M164.406 148.672l-8.894 14.94M172.898 163.844l-8.492-15.172" stroke-width="1.2" stroke="#000" stroke-miterlimit="10" fill="none"/><path d="M164.406 148.672m-1.898-2.324l-.68.79m-1.22-3.115l-1.358 1.582m-.535-3.906l-2.043 2.37m.144-4.695l-2.722 3.16m.824-5.484l-3.402 3.95m1.722-6.004l-4.008 4.65" stroke="#000" stroke-miterlimit="10" fill="none"/><path d="M164.406 148.672l13.465-11" stroke-width="1.2" stroke="#000" stroke-miterlimit="10" fill="none"/><path d="M177.87 137.672l.24-17.652-6.06.984zm0 0"/><path d="M177.87 137.672l8.134 3.082" stroke-width="1.2" stroke="#000" stroke-miterlimit="10" fill="none"/><path d="M186.004 140.754l8.13 3.082" stroke-width="1.2" stroke="#00f" stroke-miterlimit="10" fill="none"/><path d="M175.082 120.512l13.465-11M173.84 116.242l10.773-8.8M158.824 114.348l16.258 6.164M188.547 109.512l-2.79-17.164M185.758 92.348l-16.262-6.16M182.68 95.56l-13.008-4.93M169.496 86.188L156.03 97.183M156.03 97.184l2.794 17.164M160.348 98.242l2.234 13.73" stroke-width="1.2" stroke="#000" stroke-miterlimit="10" fill="none"/><path d="M194.133 143.836l1.394 8.582" stroke-width="1.2" stroke="#00f" stroke-miterlimit="10" fill="none"/><path d="M195.527 152.418l1.395 8.582" stroke-width="1.2" stroke="#000" stroke-miterlimit="10" fill="none"/><path d="M187.133 138.336h14v11h-14zm0 0" fill="#fff"/><g fill="#00f"><use xlink:href="#a" x="187.133" y="146.999"/><use xlink:href="#b" x="194.11" y="146.999"/></g><path d="M195.63 159.414l-6.735 5.5" stroke-width="1.2" stroke="#000" stroke-miterlimit="10" fill="none"/><path d="M188.895 164.914l-6.735 5.5" stroke-width="1.2" stroke="#f00" stroke-miterlimit="10" fill="none"/><path d="M198.22 162.582l-6.736 5.5" stroke-width="1.2" stroke="#000" stroke-miterlimit="10" fill="none"/><path d="M191.484 168.082l-6.734 5.5" stroke-width="1.2" stroke="#f00" stroke-miterlimit="10" fill="none"/><path d="M196.922 161l8.13 3.082" stroke-width="1.2" stroke="#000" stroke-miterlimit="10" fill="none"/><path d="M205.05 164.082l8.134 3.082" stroke-width="1.2" stroke="#f00" stroke-miterlimit="10" fill="none"/><path d="M175.457 166.496h8v11h-8zm0 0" fill="#fff"/><use xlink:href="#c" x="175.457" y="175.159" fill="#f00"/><path d="M213.184 167.164l1.394 8.578" stroke-width="1.2" stroke="#f00" stroke-miterlimit="10" fill="none"/><path d="M214.578 175.742l1.395 8.582" stroke-width="1.2" stroke="#000" stroke-miterlimit="10" fill="none"/><path d="M209.184 161.664h8v11h-8zm0 0" fill="#fff"/><use xlink:href="#c" x="209.184" y="170.327" fill="#f00"/><path d="M215.973 184.324l16.257 6.164M232.23 190.488l2.793 17.164M236.55 191.547l2.23 13.73M245.7 179.488l-13.47 11M235.023 207.652l16.258 6.16M251.28 213.813l13.47-10.997M250.043 209.547l10.773-8.8M264.75 202.816l-2.793-17.164M261.957 185.652l-16.258-6.164M258.883 188.863l-13.008-4.933" stroke-width="1.2" stroke="#000" stroke-miterlimit="10" fill="none"/></g></svg>
